public/avatar/hat/283.svg

<svg xmlns:xlink="http://www.w3.org/1999/xlink" height="92.9" width="100.7" xmlns="http://www.w3.org/2000/svg"><g transform="translate(38.65 49.75)"><use height="31.95" transform="translate(-19.5 -15.95)" width="42.45" xlink:href="#a"/><use height="30.45" transform="translate(-18.55 -15.15)" width="40.85" xlink:href="#b"/><use height="30.45" transform="translate(-18.55 -15.15)" width="40.85" xlink:href="#c"/><use height="27.1" transform="translate(-17.85 -13.45)" width="36.5" xlink:href="#d"/></g><defs><path d="M42.4 23q.15.35-.2.55l-.6-.05q-3.85-3.5-7.15-3.35 3.6 4.35 4.15 8.95l-.35.5q-.4.05-.6-.25-1.8-2.95-3.65-3.2.85 3.8 3.9 4.5.4.1.35.55-.1.4-.5.45-3.5.2-4.9-.9l-.7.75q-.4.4-.7 0l-2.5-2.25q-.5-.35.1-.8 1.45-1.1.95-2.9l-1.5.8q.9-1.7.4-2.9-.75-1.05-1.7-1.6l-.45-.25h.05l-.25-.1q.25 2.6-1.2 5.2l-.4.25-.1.15-.05-.15-.35-.35q-.7-2.65-1.8-4.5-1.7-2.25-4.55-3.75l-.5-.15.8 1 1.15 1.5-.05.55-.25.2v.05h-.1l-.2-.05-.5-.15q-4.15-1-7.7.5l-1.05.7q2.1-.15 4.15.75l.35.5q.05.4-.35.45-3.2.6-5.85 2.5-.9.75-.8 1.05.35 1.25.85 2.15.2.4-.1.6l-1.6 1.4-.6.05Q1.15 29.1 0 21.65q-.1-.35.25-.55l.6.05q1.2 1.2 3.1 2.3-.4-5.15 1.15-9.95 1.85-5.75 5.95-9.1l.7.05q.35.25.1.6-1.7 2.4.6 6.3 4.1-7.2 17.45-11.3.45-.15.6.25.15.4-.2.65-3 2.1-5.65 7.25 7.9-4.05 14.1-2.4.4.1.35.55l-.5.45q-4.45.1-6.6 2.95 4.95-.95 8.05 1.25.35.25.2.6-.15.4-.55.3-2.65-.35-4.15.65Q39.05 14.6 42.4 23" fill-rule="evenodd" id="e"/><path d="M33.2 11.7q2.4.6 4.7 4.05 1.9 2.85 2.95 6.1L39.6 20.3l.15.4q-3.9-2.85-7.4-2.2-.4.05-.45.3l-2.2-1.5q3.3 2.5 3.95 7.15l-1.2-.1q-.6.1-.5.65l.05.3q1.25 2.95 4.15 4.9-1.6.55-3.25-.05l-1.2-.6.35-.85q.2-.95-.15-2.5-.8.8-1.15 1.85l-.6 1.15-.6-.15.3-.35-.7-.6q1.55-1.6.7-4 1.9-1.6 1.3-3.3l-.85-1.9-1-.35.45.45q.35.75-.1 2.05-.6-2.6-2.35-2.5l.6 1.5-1.25.05q-.5-.3-1.05-.45-.1-3.55-2.3-6.35.95 1.85.25 3.75l.3-1.2.45.85-1 2.5q1.05.65 1.2 2.5l-.75.75-.2.05q-1-5.3-7-6.15h1.85q-3.5-1.3-6.6-.9l-.05.15-.45-.05 1.25.85.2.15q2.35.3 3.4 1.4l-.35.75.7-.1h.1l.25.95q-3.35-.6-5.75.35L9.4 21q.45-1.05 2.85-2 1.2-.5 2.3-.75-.35-.8-1.4-1.35.7.65.75 1.05-1.85-1.4-3.6-.5l1 .3q1.05.4 1.35.95-1.9.45-3.6 1.2-2.5 1.1-2.5 2.3H6.5q-.25.25-.05.6.2.3.55.2l3.95-.1q-2.65.75-4.85 2.5-1.35 1.05-.1 3.7l-.85.85q-.35.25-1.5-1-.8-.8-1.5-2.05.95 1.25 2.15 1.9l-.25-2-1.25-.35q-.95-.55-1.65-1.65l-.45-.95.35 1.1q.4.95.95 1.7l-.35.05L.55 25q-.95-2-.25-3.55l1.7 2.1 1.85 1.4q1.15-.1 2.3-.9l-2.2-.15.05-.15.1-.25v-.1q-.5-4.85.7-9.35v.15l1-1q.75-.65 1.15-.6-.4-.35-.5-1.1-.15-1.5 1.6-4.1l.85-1.2-.5.4q.55-1.1 1.4-2.15l-.1 2.8q.25 3.05 2 4.15-1.65 1.35-2.25 3.35l.45 1.5.2-1.35q.35-1.4 1.2-2.85.35.4.65-.25 3-6.05 12.8-9.95Q26.7.7 28.85 0q-1.6.85-3 1.8-1 .3-2.5 1.8l-.5.6q-2.7 2.45-4.3 5.6l-.9 2.05 1.8-1.55q1.8-1.35 2.7-1.45l.05.1.6.1q5.15-2.9 9.45-3.4l4.55-.6q-1.6.3-3.1 1.2-3.45.7-6.3 2.6l-3.2 2.9 1.45-.9q1.65-.8 3.75-1.05-.2.6.7.4 3.85-1 6.55-.1-2.05.15-3.3 1.35l-.15.25m.2 2q1.55-.05 2.65.65.65.35 1.15 1.05-.95-1.45-2.4-2.3l-.25-.15-2.25-.65 1.1 1.4" fill="#252525" fill-rule="evenodd" id="f"/><path d="M32.7 6.85v.05h-.05l.05-.05m4.1-1.8q-1.6.3-3.1 1.2-3.45.7-6.3 2.6l-.85.8q-3 .6-5.05 2.15l3.95-3.15q3.45-2.2 6.8-3l4.55-.6M25.85 1.8q-1 .3-2.5 1.8l-.5.6q-2.7 2.45-4.3 5.6-2.6 1.3-4.25 3.25l3.45-5.3q3.15-3.75 7-5.9Q26.7.7 28.85 0q-1.6.85-3 1.8M39.6 20.3q-3.8-4.5-6.95-6.75l-2.7-1.5q1.65-.75 3.25-.35 2.4.6 4.7 4.05 1.9 2.85 2.95 6.1L39.6 20.3m-15.1-1.1q-.15.65 0 2.5l-.75.75-.2.05q-1-5.3-7-6.15h1.85q2.25.2 4.65 1.5l.5-.8.3-1.2.45.85.2 2.5M9.7 7.25q.25 3.05 2 4.15-1.65 1.35-2.25 3.35-.6 1.7-.4 3.8Q7.9 16.7 7.4 14q-.65-3.6.65-6.6l.85-1.2-.5.4q.55-1.1 1.4-2.15l-.1 2.8M2 23.55l1.85 1.4q1.05.6 2.05.5l-2.95.95-.95.15h-.05l.05.1-.35.05L.55 25q-.95-2-.25-3.55l1.7 2.1m29.7 6 .35-.85q.2-.95-.15-2.5-.1 2.35-1.6 2.95l-.15.05-.6-.15.3-.35q1.85-2.5 1.55-5.2l.6 1.8q1.25 2.95 4.15 4.9-1.6.55-3.25-.05l-1.2-.6m-17.15-11.3q-.35-.8-1.4-1.35l-1-.4.6.05q2.35.3 3.4 1.4l-.35.75.7-.1h.1l.25.95q-3.35-.6-5.75.35L9.4 21q.45-1.05 2.85-2 1.2-.5 2.3-.75" fill="#4e4e4e" fill-rule="evenodd" id="g"/><path d="M34.1 11.4q1.45.85 2.4 2.3l-1.15-1.05q-1.1-.7-2.65-.65l-1.1-1.4 2.25.65.25.15M25.6 0q-2.4 1.75-3 4-1.15-.75-1.65-.25l1.7-1.85q1.5-1.5 2.5-1.8l.45-.1m-1.2 18.25q.1 2.15-.8 4.6.3-1.7.2-2.85-.15-1.85-1.2-2.5l1-2.5q.85 1.85.8 3.25m4.4 3.35.3-1.6.85-.25-1.15 1.85m-13-4.7-.7.1.5-1.15q1.25.75 1.35 1.9-.35-.75-1.05-.85h-.1M.35 23.25 0 22.15l.45.95q.7 1.1 1.65 1.65l1.25.35.25 2q-1.2-.65-2.15-1.9l-.15-.25q-.55-.75-.95-1.7M7.7 4.9l.5-.4-.85 1.2Q5.6 8.3 5.75 9.8q.1.75.5 1.1-.4-.05-1.15.6l-1 1v-.15q.15-4.5 3.6-7.45" fill="#fff" fill-rule="evenodd" id="h"/><use height="31.95" width="42.45" xlink:href="#e" id="a"/><use height="30.45" width="40.85" xlink:href="#f" id="b"/><use height="30.45" width="40.85" xlink:href="#g" id="c"/><use height="27.1" width="36.5" xlink:href="#h" id="d"/></defs></svg>

<?xml version="1.0" encoding="UTF-8" standalone="no"?>
<svg xmlns:xlink="http://www.w3.org/1999/xlink" height="92.9px" width="100.7px" xmlns="http://www.w3.org/2000/svg">
  <g transform="matrix(1.0, 0.0, 0.0, 1.0, 38.65, 49.75)">
    <use height="31.95" transform="matrix(1.0, 0.0, 0.0, 1.0, -19.5, -15.95)" width="42.45" xlink:href="#sprite0"/>
    <use height="30.45" transform="matrix(1.0, 0.0, 0.0, 1.0, -18.55, -15.15)" width="40.85" xlink:href="#sprite1"/>
    <use height="30.45" transform="matrix(1.0, 0.0, 0.0, 1.0, -18.55, -15.15)" width="40.85" xlink:href="#sprite2"/>
    <use height="27.1" transform="matrix(1.0, 0.0, 0.0, 1.0, -17.85, -13.45)" width="36.5" xlink:href="#sprite3"/>
  </g>
  <defs>
    <g id="sprite0" transform="matrix(1.0, 0.0, 0.0, 1.0, 0.0, 0.0)">
      <use height="31.95" transform="matrix(1.0, 0.0, 0.0, 1.0, 0.0, 0.0)" width="42.45" xlink:href="#shape0"/>
    </g>
    <g id="shape0" transform="matrix(1.0, 0.0, 0.0, 1.0, 0.0, 0.0)">
      <path d="M42.4 23.0 Q42.55 23.35 42.2 23.55 L41.6 23.5 Q37.75 20.0 34.45 20.15 38.05 24.5 38.6 29.1 L38.25 29.6 Q37.85 29.65 37.65 29.35 35.85 26.4 34.0 26.15 34.85 29.95 37.9 30.65 38.3 30.75 38.25 31.2 38.15 31.6 37.75 31.65 34.25 31.85 32.85 30.75 L32.15 31.5 Q31.75 31.9 31.45 31.5 L28.95 29.25 Q28.45 28.9 29.05 28.45 30.5 27.35 30.0 25.55 L28.5 26.35 Q29.4 24.65 28.9 23.45 28.15 22.4 27.2 21.85 L26.75 21.6 26.8 21.6 26.55 21.5 Q26.8 24.1 25.35 26.7 L24.95 26.95 24.85 27.1 24.8 26.95 24.45 26.6 Q23.75 23.95 22.65 22.1 20.95 19.85 18.1 18.35 L17.6 18.2 18.4 19.2 19.55 20.7 19.5 21.25 19.25 21.45 19.25 21.5 19.15 21.5 18.95 21.45 18.45 21.3 Q14.3 20.3 10.75 21.8 L9.7 22.5 Q11.8 22.35 13.85 23.25 L14.2 23.75 Q14.25 24.15 13.85 24.2 10.65 24.8 8.0 26.7 7.1 27.45 7.2 27.75 7.55 29.0 8.05 29.9 8.25 30.3 7.95 30.5 L6.35 31.9 5.75 31.95 Q1.15 29.1 0.0 21.65 -0.1 21.3 0.25 21.1 L0.85 21.15 Q2.05 22.35 3.95 23.45 3.55 18.3 5.1 13.5 6.95 7.75 11.05 4.4 L11.75 4.45 Q12.1 4.7 11.85 5.05 10.15 7.45 12.45 11.35 16.55 4.15 29.9 0.05 30.35 -0.1 30.5 0.3 30.65 0.7 30.3 0.95 27.3 3.05 24.65 8.2 32.55 4.15 38.75 5.8 39.15 5.9 39.1 6.35 L38.6 6.8 Q34.15 6.9 32.0 9.75 36.95 8.8 40.05 11.0 40.4 11.25 40.25 11.6 40.1 12.0 39.7 11.9 37.05 11.55 35.55 12.55 39.05 14.6 42.4 23.0" fill="#000000" fill-rule="evenodd" stroke="none"/>
    </g>
    <g id="sprite1" transform="matrix(1.0, 0.0, 0.0, 1.0, 0.0, 0.0)">
      <use height="30.45" transform="matrix(1.0, 0.0, 0.0, 1.0, 0.0, 0.0)" width="40.85" xlink:href="#shape1"/>
    </g>
    <g id="shape1" transform="matrix(1.0, 0.0, 0.0, 1.0, 0.0, 0.0)">
      <path d="M33.2 11.7 Q35.6 12.3 37.9 15.75 39.8 18.6 40.85 21.85 L39.6 20.3 39.75 20.7 Q35.85 17.85 32.35 18.5 31.95 18.55 31.9 18.8 L29.7 17.3 Q33.0 19.8 33.65 24.45 L32.45 24.35 Q31.85 24.45 31.95 25.0 L32.0 25.3 Q33.25 28.25 36.15 30.2 34.55 30.75 32.9 30.15 L31.7 29.55 32.05 28.7 Q32.25 27.75 31.9 26.2 31.1 27.0 30.75 28.05 L30.15 29.2 29.55 29.05 29.85 28.7 29.15 28.1 Q30.7 26.5 29.85 24.1 31.75 22.5 31.15 20.8 L30.3 18.9 29.3 18.55 29.75 19.0 Q30.1 19.75 29.65 21.05 29.05 18.45 27.3 18.55 L27.9 20.05 26.65 20.1 Q26.15 19.8 25.6 19.65 25.5 16.1 23.3 13.3 24.25 15.15 23.55 17.05 L23.85 15.85 24.3 16.7 23.3 19.2 Q24.35 19.85 24.5 21.7 L23.75 22.45 23.55 22.5 Q22.55 17.2 16.55 16.35 L18.4 16.35 Q14.9 15.05 11.8 15.45 L11.75 15.6 11.3 15.55 12.55 16.4 12.75 16.55 Q15.1 16.85 16.15 17.95 L15.8 18.7 16.5 18.6 16.6 18.6 16.85 19.55 Q13.5 18.95 11.1 19.9 L9.4 21.0 Q9.85 19.95 12.25 19.0 13.45 18.5 14.55 18.25 14.2 17.45 13.15 16.9 13.85 17.55 13.9 17.95 12.05 16.55 10.3 17.45 L11.3 17.75 Q12.35 18.15 12.65 18.7 10.75 19.15 9.05 19.9 6.55 21.0 6.55 22.2 L6.5 22.2 Q6.25 22.45 6.45 22.8 6.65 23.1 7.0 23.0 L10.95 22.9 Q8.3 23.65 6.1 25.4 4.75 26.45 6.0 29.1 L5.15 29.95 Q4.8 30.2 3.65 28.95 2.85 28.15 2.15 26.9 3.1 28.15 4.3 28.8 L4.05 26.8 2.8 26.45 Q1.85 25.9 1.15 24.8 L0.7 23.85 1.05 24.95 Q1.45 25.9 2.0 26.65 L1.65 26.7 0.55 25.0 Q-0.4 23.0 0.3 21.45 L2.0 23.55 3.85 24.95 Q5.0 24.85 6.15 24.05 L3.95 23.9 4.0 23.75 4.1 23.5 4.1 23.4 Q3.6 18.55 4.8 14.05 L4.8 14.2 5.8 13.2 Q6.55 12.55 6.95 12.6 6.55 12.25 6.45 11.5 6.3 10.0 8.05 7.4 L8.9 6.2 8.4 6.6 Q8.95 5.5 9.8 4.45 L9.7 7.25 Q9.95 10.3 11.7 11.4 10.05 12.75 9.45 14.75 L9.9 16.25 10.1 14.9 Q10.45 13.5 11.3 12.05 11.65 12.45 11.95 11.8 14.95 5.75 24.75 1.85 26.7 0.7 28.85 0.0 27.25 0.85 25.85 1.8 24.85 2.1 23.35 3.6 L22.85 4.2 Q20.15 6.65 18.55 9.8 L17.65 11.85 19.45 10.3 Q21.25 8.95 22.15 8.85 L22.2 8.95 22.8 9.05 Q27.95 6.15 32.25 5.65 L36.8 5.05 Q35.2 5.35 33.7 6.25 30.25 6.95 27.4 8.85 L24.2 11.75 25.65 10.85 Q27.3 10.05 29.4 9.8 29.2 10.4 30.1 10.2 33.95 9.2 36.65 10.1 34.6 10.25 33.35 11.45 L33.2 11.7 M33.4 13.7 Q34.95 13.65 36.05 14.35 36.7 14.7 37.2 15.4 36.25 13.95 34.8 13.1 L34.55 12.95 32.3 12.3 33.4 13.7" fill="#252525" fill-rule="evenodd" stroke="none"/>
    </g>
    <g id="sprite2" transform="matrix(1.0, 0.0, 0.0, 1.0, 0.0, 0.0)">
      <use height="30.45" transform="matrix(1.0, 0.0, 0.0, 1.0, 0.0, 0.0)" width="40.85" xlink:href="#shape2"/>
    </g>
    <g id="shape2" transform="matrix(1.0, 0.0, 0.0, 1.0, 0.0, 0.0)">
      <path d="M32.7 6.85 L32.7 6.9 32.65 6.9 32.7 6.85 M36.8 5.05 Q35.2 5.35 33.7 6.25 30.25 6.95 27.4 8.85 L26.55 9.65 Q23.55 10.25 21.5 11.8 L25.45 8.65 Q28.9 6.45 32.25 5.65 L36.8 5.05 M25.85 1.8 Q24.85 2.1 23.35 3.6 L22.85 4.2 Q20.15 6.65 18.55 9.8 15.95 11.1 14.3 13.05 L17.75 7.75 Q20.9 4.0 24.75 1.85 26.7 0.7 28.85 0.0 27.25 0.85 25.85 1.8 M39.6 20.3 Q35.8 15.8 32.65 13.55 L29.95 12.05 Q31.6 11.3 33.2 11.7 35.6 12.3 37.9 15.75 39.8 18.6 40.85 21.85 L39.6 20.3 M24.5 19.2 Q24.35 19.85 24.5 21.7 L23.75 22.45 23.55 22.5 Q22.55 17.2 16.55 16.35 L18.4 16.35 Q20.65 16.55 23.05 17.85 L23.55 17.05 23.85 15.85 24.3 16.7 24.5 19.2 M9.7 7.25 Q9.95 10.3 11.7 11.4 10.05 12.75 9.45 14.75 8.85 16.45 9.05 18.55 7.9 16.7 7.4 14.0 6.75 10.4 8.05 7.4 L8.9 6.2 8.4 6.6 Q8.95 5.5 9.8 4.45 L9.7 7.25 M2.0 23.55 L3.85 24.95 Q4.9 25.55 5.9 25.45 L2.95 26.4 2.0 26.55 1.95 26.55 2.0 26.65 1.65 26.7 0.55 25.0 Q-0.4 23.0 0.3 21.45 L2.0 23.55 M31.7 29.55 L32.05 28.7 Q32.25 27.75 31.9 26.2 31.8 28.55 30.3 29.15 L30.15 29.2 29.55 29.05 29.85 28.7 Q31.7 26.2 31.4 23.5 L32.0 25.3 Q33.25 28.25 36.15 30.2 34.55 30.75 32.9 30.15 L31.7 29.55 M14.55 18.25 Q14.2 17.45 13.15 16.9 L12.15 16.5 12.75 16.55 Q15.1 16.85 16.15 17.95 L15.8 18.7 16.5 18.6 16.6 18.6 16.85 19.55 Q13.5 18.95 11.1 19.9 L9.4 21.0 Q9.85 19.95 12.25 19.0 13.45 18.5 14.55 18.25" fill="#4e4e4e" fill-rule="evenodd" stroke="none"/>
    </g>
    <g id="sprite3" transform="matrix(1.0, 0.0, 0.0, 1.0, 0.0, 0.0)">
      <use height="27.1" transform="matrix(1.0, 0.0, 0.0, 1.0, 0.0, 0.0)" width="36.5" xlink:href="#shape3"/>
    </g>
    <g id="shape3" transform="matrix(1.0, 0.0, 0.0, 1.0, 0.0, 0.0)">
      <path d="M34.1 11.4 Q35.55 12.25 36.5 13.7 L35.35 12.65 Q34.25 11.95 32.7 12.0 L31.6 10.6 33.85 11.25 34.1 11.4 M25.6 0.0 Q23.2 1.75 22.6 4.0 21.45 3.25 20.95 3.75 L22.65 1.9 Q24.15 0.4 25.15 0.1 L25.6 0.0 M24.4 18.25 Q24.5 20.4 23.6 22.85 23.9 21.15 23.8 20.0 23.65 18.15 22.6 17.5 L23.6 15.0 Q24.45 16.85 24.4 18.25 M28.8 21.6 L29.1 20.0 29.95 19.75 28.8 21.6 M15.8 16.9 L15.1 17.0 15.6 15.85 Q16.85 16.6 16.95 17.75 16.6 17.0 15.9 16.9 L15.8 16.9 M0.35 23.25 L0.0 22.15 0.45 23.1 Q1.15 24.2 2.1 24.75 L3.35 25.1 3.6 27.1 Q2.4 26.45 1.45 25.2 L1.3 24.95 Q0.75 24.2 0.35 23.25 M7.7 4.9 L8.2 4.5 7.35 5.7 Q5.6 8.3 5.75 9.8 5.85 10.55 6.25 10.9 5.85 10.85 5.1 11.5 L4.1 12.5 4.1 12.35 Q4.25 7.85 7.7 4.9" fill="#ffffff" fill-rule="evenodd" stroke="none"/>
    </g>
  </defs>
</svg>
